X: 1
T: On a Bank of Flowers [D]
O: Trad
B: O'Neill - Music of Ireland (1903), #257
Z: John Chambers <jc:trillian.mit.edu>
N: Most versions of this tune are in minor.
M: 2/4
L: 1/16
K: D
DE \
| "D"F2A2 "A7"A2Bc | "D"d2A2 A2f2 \
| "G"e2d2 "A7"fedc | "D"d6 :|\
fg \
| "D"a2f2 fgaf | "A7"g2e2 e2de |
| "D"f2d2 defd | "A7"e2A2 A2FG \
| "D"A^GAB A=GFG | A^GAB A2f2 \
| "G"e2d2 "A7"fedc | "D"d6 |]
